packages/icons/src/components/Icon/assets/small-outline/thumbs-down.svg

<svg width="16" height="16" viewBox="0 0 16 16" fill="none" xmlns="http://www.w3.org/2000/svg">
<path fill-rule="evenodd" clip-rule="evenodd" d="M4.72678 2.75C4.52401 2.75 4.36847 2.83047 4.2822 2.93759C3.32339 4.12815 2.75 5.64032 2.75 7.28846C2.75 7.54019 2.76337 7.78854 2.78938 8.03287C2.81134 8.23915 3.01468 8.46154 3.36043 8.46154H6.77564C7.18985 8.46154 7.52564 8.79733 7.52564 9.21154C7.52564 9.62575 7.18985 9.96154 6.77564 9.96154H6.62321C6.60563 10.094 6.56765 10.2269 6.50637 10.3557C6.25591 10.8822 6.11538 11.4717 6.11538 12.0962C6.11538 12.383 6.28985 12.6291 6.53846 12.7342V12.6517C6.53846 12.1893 6.62669 11.7311 6.79842 11.3018C7.0783 10.6021 7.63554 10.1201 8.20161 9.81866C8.82269 9.48789 9.36661 9.03005 9.79825 8.47968C10.1788 7.99442 10.7562 7.5898 11.452 7.51309C11.6936 6.92574 11.8269 6.28206 11.8269 5.60577C11.8269 4.93443 11.6955 4.2953 11.4574 3.71154H11.122C10.7313 3.71154 10.3432 3.64856 9.97259 3.52502L7.97615 2.85954C7.75849 2.78699 7.53056 2.75 7.30112 2.75L4.72678 2.75ZM11.4033 2.21154L11.122 2.21154C10.8925 2.21154 10.6646 2.17455 10.4469 2.102L8.45049 1.43652C8.07988 1.31298 7.69178 1.25 7.30112 1.25L4.72678 1.25C4.13728 1.25 3.52461 1.48682 3.11395 1.99674C1.94825 3.44419 1.25 5.28581 1.25 7.28846C1.25 7.59333 1.26619 7.89469 1.29781 8.19167C1.41519 9.29419 2.38998 9.96154 3.36043 9.96154H5.04031C4.76638 10.6196 4.61538 11.3411 4.61538 12.0962C4.61538 13.3069 5.59691 14.2885 6.80769 14.2885C7.48743 14.2885 8.03846 13.7374 8.03846 13.0577V12.6517C8.03846 12.3801 8.09028 12.111 8.19114 11.8589C8.30082 11.5847 8.54694 11.3342 8.90669 11.1426C9.7136 10.7129 10.419 10.1189 10.9785 9.40536C11.0023 9.37509 11.0267 9.34656 11.0515 9.31975C11.2192 9.68343 11.5681 9.96154 12.0627 9.96154H12.7376C13.5281 9.96154 14.3387 9.52731 14.6648 8.69991C15.0427 7.74081 15.25 6.69659 15.25 5.60577C15.25 4.74868 15.122 3.92011 14.8837 3.13884C14.6056 2.22764 13.7453 1.73077 12.902 1.73077H12.3201C11.9084 1.73077 11.5939 1.93152 11.4033 2.21154ZM12.8806 3.23077C13.1689 3.96741 13.3269 4.76884 13.3269 5.60577C13.3269 6.62863 13.0908 7.59833 12.6696 8.46154H12.7376C13.0137 8.46154 13.2042 8.31496 13.2692 8.14994C13.5793 7.36312 13.75 6.50528 13.75 5.60577C13.75 4.89866 13.6445 4.21755 13.449 3.5766C13.3945 3.39802 13.1981 3.23077 12.902 3.23077H12.8806Z" fill="black"/>
</svg>

<svg xmlns="http://www.w3.org/2000/svg" width="16" height="16" fill="none" viewBox="0 0 16 16">
    <path d="M4.727 2.75a.56.56 0 0 0-.445.188A6.9 6.9 0 0 0 2.79 8.033c.022.206.226.429.571.429h3.416a.75.75 0 0 1 0 1.5h-.153a1.3 1.3 0 0 1-.117.394 4 4 0 0 0-.39 1.74c0 .287.174.533.422.638v-.082c0-.463.089-.92.26-1.35.28-.7.838-1.182 1.404-1.483a5.05 5.05 0 0 0 1.596-1.34c.38-.485.958-.89 1.654-.966a5 5 0 0 0 .375-1.907c0-.672-.132-1.31-.37-1.894h-.335a3.6 3.6 0 0 1-1.15-.187L7.977 2.86a2.1 2.1 0 0 0-.675-.11zm6.676-.538h-.281q-.346 0-.675-.11L8.45 1.437a3.6 3.6 0 0 0-1.149-.187H4.727c-.59 0-1.202.237-1.613.747a8.4 8.4 0 0 0-1.816 6.195c.117 1.102 1.092 1.77 2.062 1.77h1.68a5.5 5.5 0 0 0-.425 2.134c0 1.21.982 2.193 2.193 2.193.68 0 1.23-.552 1.23-1.231v-.406c0-.272.052-.541.153-.793.11-.274.356-.525.716-.716a6.5 6.5 0 0 0 2.072-1.738q.035-.045.073-.085a1.08 1.08 0 0 0 1.01.642h.676c.79 0 1.6-.435 1.927-1.262.378-.96.585-2.003.585-3.094 0-.857-.128-1.686-.366-2.467-.278-.911-1.139-1.408-1.982-1.408h-.582c-.412 0-.726.2-.917.48m1.478 1.019c.288.736.446 1.538.446 2.375a6.5 6.5 0 0 1-.657 2.856h.068c.276 0 .466-.147.531-.312.31-.787.481-1.645.481-2.544 0-.707-.105-1.388-.301-2.03-.054-.178-.25-.345-.547-.345z" clip-rule="evenodd"/>
</svg>
